X:1
T:Title
%%score 1 2 3 4
L:1/8
M:4/2
K:F
V:1 treble nm="Part_1"
V:2 treble-8 nm="Part_2"
V:3 treble-8 nm="Part_3"
V:4 bass nm="Part_4"
V:1
 (3:2:2F16 F8 | (3:2:2G16 A8 | (3:2:2B16 A8 | (3F8 G8 A8 | B16 | (3:2:2d16 c8 | (3:2:2B16 A8 | %7
 (3:2:2G16 G8 | (3F8 F8 E8 | F8 z8 | z8 F6 G2 | A2 A2 B6 A2 G4 | C4 F4 E2 A4 B2 | %13
 c4 A4 G3 F E2 F2 | G4 C4 z8 | G6 G2 c6 B2 | A2 A2 G3 F E2 F4 E2 | F8 z4 F4- | F4 G4 A8 | %19
 G4 c8 B4 | A6 A2 G8- | G8 z8 | z4 G4 A4 B4 | c2 c4 B2 c3 BAG A2 | G4 F4 z8 | F4 G4 A4 B4 | %26
 z2 c4 B2 c3 BAG A2 | G4 F4 z8 | z2 F4 E2 F3 EDC D2 |[M:4/4] E2 F4 E2 |[M:4/2] (3:2:2F16 F8 | %31
 (3:2:2F16 G8 | (3G8 G8 A8 | (3:2:2B16 B8 | (3:2:2G16 F8 | (3F12 F4 F8 | (3:2:2B16 A8 | %37
 (3G12 G4 F8 | (3:2:2F16 G8 | G6 G2 G8 | z8 z4 G4 | A4 B4 c2 c4 B2 | c3 BAG A2 G4 F4 | z8 F4 G4 | %44
 A4 B4 z2 c4 B2 | c3 BAG A2 G4 F4 | z8 z2 F4 E2 | F3 EDC D2 E2 F4 E2 | F16 |] %49
V:2
 (3:2:2c16 d8 | (3:2:2e16 f8 | (3:2:2f16 f8 | (3f8 d8 f8 | f16 | (3:2:2f16 f8 | (3:2:2f16 f8 | %7
 (3:2:2e16 e8 | (3f8 d8 c8 | c4 c6 A2 d4 | c2 f4 d2 c4 d4 | c2 f2 d3 cde f2 e4- | e4 z4 z2 c4 d2 | %13
 e2 e2 f2 c2 c6 F2 | z8 c2 c2 f4- | f2 e2 d4 c4 d4 | c16 | z4 d8 c4 | B8 A8 | c8 (3:2:2d8 e4 | %20
 f4 f4 d6 d2 | e8 z8 | z2 f4 e2 f3 edc d2 | c4 d4 c8 | z4 c4 d4 e4 | f2 f4 e2 f3 edc d2 | %26
 c2 c2 d4 e4 f4 | c8 d4 f3 e | dc d2 B4 c4 d4 |[M:4/4] c4 c4 |[M:4/2] (3:2:2c16 c8 | (3:2:2d16 e8 | %32
 (3e8 e8 f8 | (3:2:2f16 d8 | (3:2:2_e16 d8 | (3c12 c4 d8 | (3:2:2f16 f8 | (3d12 d4 d8 | %38
 (3:2:2c16 e8 | d4 d4 e8 | z8 z2 f4 e2 | f3 edc d2 c4 d4 | c8 z4 c4 | d4 e4 f2 f4 e2 | %44
 f3 edc d2 c2 c2 d4 | e4 f4 c8 | d4 f3 edc d2 B4 | c4 d4 c4 c4 | c16 |] %49
V:3
 (3:2:2A16 A8 | (3:2:2A16 c8 | (3:2:2d16 c8 | (3d8 B8 c8 | d16 | (3:2:2B16 c8 | (3:2:2d16 c8 | %7
 (3:2:2c16 c8 | (3A8 B8 G8 | A8 F6 G2 | A2 A2 B6 A2 B4 | F4 G6 F2 c4 | G2 A4 B2 cBAG F4 | %13
 G4 z2 F4 E2 A4 | G2 c4 A2 G4 F4 | z8 C2 C2 G4 | E2 F4 E2 A4 G4 | F4 B8 c4 | d8 c8 | z8 A4 B4 | %20
 c6 dc =B2 c4 B2 | c4 z2 c4 =B2 c3 B | AG A2 G4 z8 | z8 z4 F4 | G4 A4 B4 z2 c2- | %25
 c2 B2 c3 BAG F2 G4 | A4 G4 z8 | z2 G2 A4 B4 c4 | z4 z2 B4 A2 B3 A |[M:4/4] G2 F2 G4 | %30
[M:4/2] (3:2:2A16 A8 | (3:2:2A16 c8 | (3c8 c8 c8 | (3:2:2d16 B8 | (3:2:2B16 B8 | (3A12 A4 B8 | %36
 (3:2:2d16 c8 | (3B12 B4 A8 | (3:2:2A16 c8 | =BG c4 B2 c4 z2 c2- | c2 =B2 c3 BAG A2 G4 | z16 | %42
 z4 F4 G4 A4 | B4 z2 c4 B2 c3 B | AG F2 G4 A4 G4 | z8 z2 G2 A4 | B4 c4 z4 z2 B2- | %47
 B2 A2 B3 A G2 F2 G4 | A16 |] %49
V:4
 (3:2:2F,16 D,8 | (3:2:2C,16 F,,8 | (3:2:2B,,16 F,8 | (3D,8 G,8 F,8 | B,,16 | (3:2:2B,,16 A,,8 | %6
 (3:2:2B,,16 F,8 | (3:2:2C,16 C,8 | (3D,8 B,,8 C,8 | F,,8 z8 | z16 | z8 z4 z2 C,2- | %12
 C,2 A,,2 D,4 C,2 F,4 D,2 | C,4 F,,4 C,6 D,2 | E,2 E,2 F,6 E,2 D,4 | C,2 C,4 B,,2 A,,4 G,,4 | %16
 A,,2 F,,2 C,4 C,8 | z4 B,,8 A,,4 | B,,8 F,,4 F,4- | F,4 E,4 F,4 G,4 | A,4 F,4 G,6 G,2 | %21
 C,4 C,4 D,4 E,4 | F,4 z4 F,4 G,4 | A,4 G,4 z4 z2 F,2- | F,2 E,2 F,3 E,D,C, D,2 C,4 | D,4 C,4 z8 | %26
 z8 C,4 D,4 | E,4 F,4 z2 B,,4 A,,2 | B,,3 A,,G,,F,, G,,2 F,,4 B,,4 |[M:4/4] C,4 C,4 | %30
[M:4/2] (3:2:2F,,16 F,8 | (3:2:2D,16 C,8 | (3C,8 C,8 F,8 | (3:2:2B,,16 B,,8 | (3:2:2_E,16 B,,8 | %35
 (3F,12 F,4 B,,8 | (3:2:2B,,16 F,8 | (3G,12 G,4 D,8 | (3:2:2F,16 C,8 | G,6 G,2 C,4 C,4 | %40
 D,4 E,4 F,4 z4 | F,4 G,4 A,4 G,4 | z4 z2 F,4 E,2 F,3 E, | D,C, D,2 C,4 D,4 C,4 | z16 | %45
 C,4 D,4 E,4 F,4 | z2 B,,4 A,,2 B,,3 A,,G,,F,, G,,2 | F,,4 B,,4 C,4 C,4 | F,,16 |] %49

